Obsidian/status/16s/notification-symbolic.svg

<svg height="16" width="16" xmlns="http://www.w3.org/2000/svg"><path d="m8 1c.55 0 1 .45 1 1 0 .03 0 .07-.01.1 2.29.46 4.01 2.47 4.01 4.9v2 2.5l2 2v.5h-2-10-2v-.5l2-2v-4.5c0-2.43 1.72-4.44 4.01-4.9-.01-.03-.01-.07-.01-.1 0-.55.45-1 1-1zm1.73 14c-.36.62-1.02 1-1.73 1s-1.37-.38-1.73-1z" fill="#bebebe"/></svg>

<?xml version="1.0" encoding="UTF-8" standalone="no"?>
<svg
   xmlns:dc="http://purl.org/dc/elements/1.1/"
   xmlns:cc="http://creativecommons.org/ns#"
   xmlns:rdf="http://www.w3.org/1999/02/22-rdf-syntax-ns#"
   xmlns:svg="http://www.w3.org/2000/svg"
   xmlns="http://www.w3.org/2000/svg"
   id="svg4"
   version="1.1"
   height="16"
   width="16">
  <metadata
     id="metadata10">
    <rdf:RDF>
      <cc:Work
         rdf:about="">
        <dc:format>image/svg+xml</dc:format>
        <dc:type
           rdf:resource="http://purl.org/dc/dcmitype/StillImage" />
        <dc:title></dc:title>
      </cc:Work>
    </rdf:RDF>
  </metadata>
  <defs
     id="defs8" />
  <path
     id="path2"
     d="M 8,1 C 8.55,1 9,1.45 9,2 9,2.03 9,2.07 8.99,2.1 11.28,2.56 13,4.57 13,7 V 9 11.5 L 15,13.5 V 14 H 13 3 1 V 13.5 L 3,11.5 V 7 C 3,4.57 4.72,2.56 7.01,2.1 7,2.07 7,2.03 7,2 7,1.45 7.45,1 8,1 Z M 9.73,15 C 9.37,15.62 8.71,16 8,16 7.29,16 6.63,15.62 6.27,15 Z"
     style="fill:#bebebe;fill-opacity:1" />
</svg>
